X: 5931
T: Cameronian Rant, The
R: reel
M: 4/4
K: Fmajor
cF F/F/F cFAF|cF F/F/Fc2Ac|=BG G/G/G BGAG|=BG G/G/GB2AB:|
F2fg fdcA|F2fg fdcA|G2ga gfd=B|gfga bgfd|
cffg fdcA|FAcf e2cf|e/f/g df e/f/g de|faga fcde||

